X:399
T: "Der Kuechenjunge und die Koenigstochter"
N: Z1079
O: Europa, Mitteleuropa, Deutschland, Hessen
R: Romanze, Ballade
M: 4/4
L: 1/8
K: Ab
E | A2AAA3c | BcBBA3
A | B2B2e2e2 | B4e2
cd | e2fed2Bc | ddedc3
c | e2A2A2G2 | F4E4 |
c2A2A4 | ABcde3
e | d2B2e2c2 | B4A2z

@@@ Tune index: 10157
